flaticon/religion/church.svg

<svg xmlns="http://www.w3.org/2000/svg" width="32" height="32" viewBox="0 0 24 24">
    <path d="M 6.007812 8.199219 L 3.601562 8.199219 L 3.601562 10.601562 L 1.601562 10.601562 L 1.601562 13.007812 L 3.601562 13 L 3.601562 18.996094 L 6.007812 19.023438 L 6.007812 13.007812 L 8 13 L 8 10.601562 L 6 10.601562 Z M 7.199219 11.398438 L 7.199219 12.203125 L 5.207031 12.207031 L 5.207031 18.214844 L 4.398438 18.203125 L 4.398438 12.199219 L 2.398438 12.207031 L 2.398438 11.398438 L 4.398438 11.398438 L 4.398438 9 L 5.207031 9 L 5.199219 11.398438 Z M 7.199219 11.398438"/>
    <path d="M 23.71875 11.816406 L 9.601562 7.503906 L 9.601562 1 C 9.601562 0.84375 9.511719 0.703125 9.371094 0.636719 C 9.230469 0.570312 9.066406 0.59375 8.945312 0.691406 L 0.144531 7.890625 C 0.0546875 7.964844 0 8.078125 0 8.199219 L 0 23 C 0 23.222656 0.179688 23.398438 0.398438 23.398438 L 23.601562 23.398438 C 23.820312 23.398438 24 23.222656 24 23 L 24 12.199219 C 24 12.023438 23.886719 11.867188 23.71875 11.816406 Z M 0.800781 8.390625 L 8.800781 1.84375 L 8.800781 22.601562 L 0.800781 22.601562 Z M 11.601562 22.601562 L 11.601562 16.199219 L 12.800781 16.199219 L 12.800781 22.601562 Z M 16 22.601562 L 16 13.800781 L 17.199219 13.800781 L 17.199219 22.601562 Z M 20.398438 22.601562 L 20.398438 16.199219 L 21.199219 16.199219 L 21.199219 22.601562 Z M 23.199219 22.601562 L 22 22.601562 L 22 15.398438 L 19.601562 15.398438 L 19.601562 22.601562 L 18 22.601562 L 18 13 L 15.199219 13 L 15.199219 22.601562 L 13.601562 22.601562 L 13.601562 15.398438 L 10.800781 15.398438 L 10.800781 22.601562 L 9.601562 22.601562 L 9.601562 8.339844 L 23.199219 12.496094 Z M 23.199219 22.601562"/>
</svg>

<svg xmlns="http://www.w3.org/2000/svg" width="32" height="32" viewBox="0 0 24 24">
    <path d="M6.008 8.2H3.602v2.402h-2v2.406l2-.008v5.996l2.406.027v-6.015L8 13v-2.398H6zm1.191 3.198v.805l-1.992.004v6.008l-.809-.012V12.2l-2 .008v-.809h2V9h.809l-.008 2.398zm0 0"/>
    <path d="M23.719 11.816L9.602 7.504V1a.401.401 0 0 0-.657-.309l-8.8 7.2A.401.401 0 0 0 0 8.199V23c0 .223.18.398.398.398h23.204A.398.398 0 0 0 24 23V12.2a.399.399 0 0 0-.281-.384zM.8 8.391l8-6.547v20.758h-8zM11.6 22.6V16.2h1.2v6.403zm4.399 0v-8.8h1.2v8.8zm4.398 0V16.2h.801v6.403zm2.801 0H22v-7.203h-2.398v7.204H18V13h-2.8v9.602h-1.598v-7.204H10.8v7.204H9.6V8.34L23.2 12.496zm0 0"/>
</svg>
